X:129
T:Planxty Fanny Power
M:3/4
L:1/8
R:Waltz
K:G
"G"G4D2|G4AB|"Am"c4B2|A4G2|"D7"F4E2|D4ED|F4G2|A4c2|
"G"B4AG|B2c2d2|"C"e4A2|"Am"A4G2|"D7"F4ED|D2E2F2|"G"(G6|G4)D2:|
"G"d2Bcd2|"GM7"d2Bcd2|"G6"G4G2|"G"G4G2|"C"e2cde2|"CM7"e2cde2|"Am"A4A2|"D
"A4dc|
"G"B3cd2|"C"e3fg2|"D"f3ga2|d4c2|"G"B3AG2|"D7"Ac3F2|"G"(G6|G6):|
